dhis-2/dhis-support/dhis-support-system/src/main/resources/SVGs/mobile_clinic_negative.svg

<?xml version="1.0" encoding="UTF-8" standalone="no"?>
<!-- Created with Inkscape (http://www.inkscape.org/) -->
<svg id="svg8" xmlns:rdf="http://www.w3.org/1999/02/22-rdf-syntax-ns#" xmlns="http://www.w3.org/2000/svg" xmlns:osb="http://www.openswatchbook.org/uri/2009/osb" height="48" width="48" version="1.1" xmlns:cc="http://creativecommons.org/ns#" viewBox="0 0 12.7 12.7" xmlns:dc="http://purl.org/dc/elements/1.1/">
 <title id="title4753">UIO-icon</title>
 <metadata id="metadata5">
  <rdf:RDF>
   <cc:Work rdf:about="">
    <dc:format>image/svg+xml</dc:format>
    <dc:type rdf:resource="http://purl.org/dc/dcmitype/StillImage"/>
    <dc:title>UIO-icon</dc:title>
    <dc:creator>
     <cc:Agent>
      <dc:title>Joaquín Urbano</dc:title>
     </cc:Agent>
    </dc:creator>
    <dc:rights>
     <cc:Agent>
      <dc:title>GPL</dc:title>
     </cc:Agent>
    </dc:rights>
   </cc:Work>
  </rdf:RDF>
 </metadata>
 <g id="layer1" fill="#333" transform="translate(0,-284.3)">
  <path id="rect939" d="m0 0v48h48v-48zm4 11.5h28v16h-28zm13 1.5v4.5h-4.5v3h4.5v4.5h3v-4.5h4.5v-3h-4.5v-4.5zm16 3.5h7.1289l3.871 8v8h-2.02c-0.444-1.518-1.836-2.562-3.418-2.562-1.581 0-2.973 1.044-3.417 2.562h-2.145zm6.8008 0.50977-6.2832 0.001953v7.4844h9.916zm-35.801 11.49h28v4h-10.613c-0.444-1.518-1.836-2.562-3.418-2.562s-2.974 1.044-3.418 2.562h-2.1328c-0.444-1.518-1.836-2.562-3.418-2.562-1.5819 0-2.9739 1.044-3.418 2.562h-1.582zm5 2c1.6569 0 3 1.3431 3 3 2e-8 1.6569-1.3431 3-3 3s-3-1.3431-3-3c-2.6e-8 -1.6569 1.3431-3 3-3zm8.9688 0c1.6569 0 3 1.3431 3 3 2e-8 1.6569-1.3431 3-3 3s-3-1.3431-3-3c-2e-8 -1.6569 1.3431-3 3-3zm20.594 0c1.6569 0 3 1.3431 3 3 4e-8 1.6569-1.3431 3-3 3s-3-1.3431-3-3c-2e-8 -1.6569 1.3431-3 3-3z" fill-rule="evenodd" transform="matrix(.26458 0 0 .26458 0 284.3)"/>
 </g>
</svg>

<svg width="48" height="48" viewBox="0 0 48 48" fill="none" xmlns="http://www.w3.org/2000/svg">
<path fill-rule="evenodd" clip-rule="evenodd" d="M0 0V47.9994H47.9994V0H0ZM3.99995 11.4999H31.9996V27.4997H3.99995V11.4999ZM16.9998 12.9998V17.4998H12.4998V20.4997H16.9998V24.9997H19.9997V20.4997H24.4997V17.4998H19.9997V12.9998H16.9998ZM32.9996 16.4998H40.1284L43.9993 24.4997V32.4996H41.9794C41.5354 30.9816 40.1434 29.9376 38.5614 29.9376C36.9804 29.9376 35.5885 30.9816 35.1445 32.4996H32.9995L32.9996 16.4998ZM39.8003 17.0096L33.5172 17.0115V24.4958H43.4331L39.8003 17.0096ZM3.99975 28.4994H31.9994V32.4994H21.3865C20.9425 30.9814 19.5506 29.9374 17.9686 29.9374C16.3866 29.9374 14.9946 30.9814 14.5506 32.4994H12.4178C11.9739 30.9814 10.5819 29.9374 8.99989 29.9374C7.41801 29.9374 6.02602 30.9814 5.58193 32.4994H3.99995L3.99975 28.4994ZM8.99969 30.4994C10.6566 30.4994 11.9996 31.8425 11.9996 33.4994C11.9996 35.1562 10.6566 36.4993 8.99969 36.4993C7.34281 36.4993 5.99972 35.1562 5.99972 33.4994C5.99972 31.8425 7.34281 30.4994 8.99969 30.4994ZM17.9684 30.4994C19.6253 30.4994 20.9683 31.8425 20.9683 33.4994C20.9683 35.1562 19.6253 36.4993 17.9684 36.4993C16.3115 36.4993 14.9684 35.1562 14.9684 33.4994C14.9684 31.8425 16.3115 30.4994 17.9684 30.4994ZM38.5621 30.4994C40.219 30.4994 41.5621 31.8425 41.5621 33.4994C41.5621 35.1562 40.219 36.4993 38.5621 36.4993C36.9052 36.4993 35.5622 35.1562 35.5622 33.4994C35.5622 31.8425 36.9052 30.4994 38.5621 30.4994Z" fill="#333333"/>
</svg>
